X:1
T:No.55 Mazurka
C:mazurka
M:3/4
L:1/8
K:G
D>G||B>c B>A G>B|d<g d>B c<e|A2A>g f>e|
e>dd2D>G|B>c B>A G>B|d<g d>B c<e|A2A>G F>A|
|[1G2G2D>G:|[2G2G>D G>B||d2d>B (3def|g2g>a (3gfe|
d2d>g (3fed|c2c>e d>c|B2B>A G>B|
d2d>B (3def|g2g>a (3gfe|d2d>g (3fed|
c2B>A B>c|d2A2f>d|e>^d e>g (3e^cA|
d>^c d>A f>d|e>^d e>g (3e^cA|d>e d>e =c>d||
B>c (3BAG d>G|B>c (3BAG d>G|A>_B (3AG=F c>F|
A>_B (3AG=F c>F|=B>c (3BAG d>G|B>c (3BAG d>G|
F>G A>B (3cBA|[1G2G2d>c:|[2G2G2D>G||
